app/dist/common/images/fgi-industries-ltd.svg

<svg height="18" viewBox="0 0 18 18" width="18" xmlns="http://www.w3.org/2000/svg"><path d="m0 0h18v18h-18z" fill="#181b1e"/><g fill="#f0f3fa"><path d="m15 6h-1v6h1zm-8 0h-4v6h1v-2.5h3.1v-1h-3.1v-1.5h3z"/><path d="m10.16 6a3.09 3.09 0 0 0 -3.16 3c0 1.66 1.42 3 3.16 3 1.7 0 2.84-1.36 2.84-3h-3v1h1.82a1.7 1.7 0 0 1 -1.68 1c-1.46-.02-2.14-.79-2.14-2 0-1.2.93-2 2.14-2 .64 0 1.2.09 1.68.52l.4-.9a3.21 3.21 0 0 0 -2.06-.62z"/></g></svg>

<!-- by TradingView --><svg width="18" height="18" viewBox="0 0 18 18" xmlns="http://www.w3.org/2000/svg"><path fill="#181B1E" d="M0 0h18v18H0z"/><path d="M15 6h-1v6h1V6ZM7 6H3v6h1V9.5h3.1v-1H4V7h3V6Z" fill="#F0F3FA"/><path d="M10.16 6A3.09 3.09 0 0 0 7 9c0 1.66 1.42 3 3.16 3 1.7 0 2.84-1.36 2.84-3h-3v1h1.82a1.7 1.7 0 0 1-1.68 1C8.68 10.98 8 10.21 8 9c0-1.2.93-2 2.14-2 .64 0 1.2.09 1.68.52l.4-.9A3.21 3.21 0 0 0 10.16 6Z" fill="#F0F3FA"/></svg>
